front_end/Images/src/left-panel-open.svg

<svg width="20" height="20" viewBox="0 0 20 20" fill="none" xmlns="http://www.w3.org/2000/svg">
<path d="M10.5 6.75V13.25L14 10L10.5 6.75ZM4.396 17C4.00667 17 3.67667 16.8647 3.406 16.594C3.13533 16.3233 3 15.9933 3 15.604V4.396C3 4.00667 3.13533 3.67667 3.406 3.406C3.67667 3.13533 4.00667 3 4.396 3H15.604C15.9933 3 16.3233 3.13533 16.594 3.406C16.8647 3.67667 17 4.00667 17 4.396V15.604C17 15.9933 16.8647 16.3233 16.594 16.594C16.3233 16.8647 15.9933 17 15.604 17H4.396ZM7 15.5V4.5H4.5V15.5H7ZM8.5 15.5H15.5V4.5H8.5V15.5Z" fill="black"/>
</svg>

<svg width="20" height="20" fill="none" xmlns="http://www.w3.org/2000/svg"><path d="M10.5 6.75v6.5L14 10l-3.5-3.25ZM4.396 17c-.39 0-.72-.135-.99-.406-.27-.27-.406-.6-.406-.99V4.396c0-.39.135-.72.406-.99.27-.27.6-.406.99-.406h11.208c.39 0 .72.135.99.406.27.27.406.6.406.99v11.208c0 .39-.135.72-.406.99-.27.27-.6.406-.99.406H4.396ZM7 15.5v-11H4.5v11H7Zm1.5 0h7v-11h-7v11Z" fill="#000"/></svg>
